X: 1819
T: Söyle Sevgili
C: Münir Nurettin Selçuk
O: Turkey
F: http://compmusic.upf.edu/node/140
N: ussak--fantezi--sofyan--soyle_sevgili--munir_nurettin_selcuk
N: makam= ussak
N: form= fantezi
N: usul= sofyan = 4/4
M: 4/4
L: 1/16
K: C _2/4B   
Q: 1/4=108
%%MIDI tuningsystem comma53
z2e2 A2e2 A2e2 A2e2  | z2A2 B2c2 d2e2 fedf  | e16  | \
w:   |   |   | 
z2A2 B2c2 d2e2 fede  | 
w:   | 
d8-d2z2 dede  | c12 cBcd  | B2f2 e2d2 c2B2 A2G2  | \
w:   |   |   | 
z2c2 B2d2 c2B2 B2A2  | 
w:   | 
A4 D2E2 ^3/4F2G2 A4  | ^3/4F2G2 F2G2 A8  | \
w:  AĞIR  |   | 
z4 D2E2 ^3/4F2G2 A4  | ^3/4F2G2 F2G2 A8  | 
w:   |   | 
d16  | d16  | d16  | d12 z4  | z4 d8 d2c2  | d2c2 B8 B2A2  | \
w:  Ah   |   |   |   |  söy *  le   |  sev *  *  gi  | 
A12 c2B2  | A4 c2B2 A8  | 
w:  li  SAZ  |   | 
z4 c4 B4 A4  | B4 c8 d4  | d16  | f2e2 d2e2 d8  | \
w:  sev *  gi  |  li  söy  |  le    |  SAZ  | 
z4 e8 e2d2  | d4 d2c2 c4 z4  | 
w:  Söy *  le   |  ba *  na   | 
z4 e8 e2d2  | d4 d2c2 c4 z4  | d2e2 d4 z8  | \
w:  göz *  be  |  be ğim   |  da *  lım   | 
d8 c6{A}B2  | z4 c8 d4  | c2c2 B2A2 B8  | 
w:  yap ra  |  ğım  çi  |  çe *  *  *  ğim    | 
z8 B4 c4  | c2B2 B2A2 A8  | z4 B8 c4  | \
w:  Se nin   |  aş *  *  *  kın  |  dır  di  | 
c2B2 B2A2 B8  | z8 c4 d4  | d4 d12  | 
w:  le *  *  *  ğim   |  Se vi  |  yo rum   | 
d16  | d8 c6{A}B2  | z4 c8 d4  | d4 d12  | \
w:   |   |  se ve  |  ce ğim    | 
z2f2 e2d2 z2e2 d2c2  | z2d2 c2B2 c2c2 B2A2  | 
w:  SAZ  |   | 
G4 z4 f4 f2e2  | e6d2 d4 {f}e3d  | d16  | \
w:  *  Ne  fü  |  sun  *  et  |  tin   | 
d8 d6c2  | z4 e4 d4 e4  | d4 c8 B4  | 
w:   |  ru *  hu  |  ma  *  böy  | 
c8 z4 e2f2  | e2d2 c2B2 c8  | z4 d4 c4 d4  | \
w:  le   SAZ  |   |  Söy *  le   | 
c4 B8 B2A2  | A16  | c2c2 B2A2 B8  | 
w:  sev *  gi  |  li   |   | 
z4 c4 B4 A4  | B4 c8 d4  | d4 c4 B4 d4  | \
w:  sev *  gi  |  li  söy  |  le  sev *  gi  | 
c2B2 A2d2 c2B2 B2A2  | A16  | c2B2 A2B2 A8  | 
w:  li  *  *  *  söy  |  le   |  SAZ  | 
z2c2 d2e2 f8  | z2ef gfed e8  | e2de fedc d2cd edcB  | 
w:   |   |   | 
cBc2 dcBc A6ag  | gffe f4 f8  | f8 f6f2  | \
w:   |  *  *  *  *  *  Ah   |  *  söy le   | 
f8 f8  | 
w:  bül bül   | 
f8 f6f2  | f8 f8  | f8 g6_1/4a2  | g8 a8  | \
w:  *  gül  di  |  lin den   |  *  tut  ge  |  tir  yâ  | 
a8 g6_b2  | a4 g4 f8  | f8 f2f6  | f4 e4 e8  | 
w:  *  ri  e  |  lin *  den    |  *  Dal_ ay  |  rı *  lır   | 
e4 d4 d6e2  | d4 c2B2 c8  | c4 z4 c6d2  | \
w:  *  *  mı  gü  |  lün *  *  den   |  *  Ay rı  | 
d8 d4 c4  | c4 {A}B4 z4 c4  | c4 d4 d4 d4  | 
w:  lır sam   |  *  *  *  ö  |  *  le ce ğim    | 
d8 z8  | f2e2 d2z2 e2d2 c2z2  | d2c2 B2c2 c2B2 A2G2  | \
w:   |  SAZ  |   | 
z4 f4 f2e2 e4  | 
w:  Ne  fü *  sun   | 
d2d4{f}e2 d2d6  | d8 d6c2  | z4 e4 d4 e4  | \
w:  *  et *  *  *  tin   |   |  ru *  hu  | 
d4 c8 B4  | c8 z4 e2f2  | e2d2 c2B2 c8  | 
w:  ma  *  böy  |  le   SAZ  |   | 
z4 d4 c4 d4  | c4 B8 B2A2  | A16  | c2c2 B2A2 B8  | \
w:  Söy *  le   |  sev *  gi  |  li   |   | 
z4 c4 B4 A4  | B4 c8 d4  | 
w:  sev *  gi  |  li  söy  | 
d4 c4 B4 d4  | c2B2 A2d2 c2B2 B2A2  | A16  | |


